X:289
T: DER KUCKUK IST EIN KLUGER MANN
N: E0881A
O: Europa, Mitteleuropa, Deutschland, Hessen, Hanau, Hattengesaess
R: Hochzeits -, Ehestands - Lied
M: 2/4
L: 1/16
K: C
G,2 | E,2G,2G,2G,2 | A,2G,2G,4 |
G,G,G,G,A,2B,2 | C4z2
G,2 | E,2G,2G,2G,2 | A,2G,2G,4 |
G,G,G,G,A,2B,2 | C4z2
B,2 | B,2B,2B,2A,2 | B,2C2D2z2 |
CCCCC2C2 | B,2A,2G,2
G,2 | E,2E,2G,2G,2 | C2C2E4 |
DDDDD2D2 | C4z2
G,2 | F3FF2G2 | E3EE4 |
DDDDD2D2 | C2E2G2
G,2 | F3FF2G2 | E3EE4 |
DDDDD2D2 | C4z2

@@@ Tune index: 4602
